202404-ahaslides-april/assets/images/2b.svg

<svg width="100" height="100" viewBox="0 0 100 100" fill="none" xmlns="http://www.w3.org/2000/svg">
<g clip-path="url(#clip0_2007_1120)">
<path d="M82.6085 46.8697H55.9402V38.863C55.9402 35.2078 52.9687 32.2239 49.3011 32.2239L16.3168 32.2115C12.6616 32.199 9.67773 35.1829 9.67773 38.8381V59.9615C9.67773 63.6167 12.6492 66.6006 16.3168 66.6006H17.5477V70.3304C17.5477 70.9894 17.9082 71.5861 18.4926 71.897C18.7785 72.0503 19.1006 72.1232 19.4246 72.1078C19.7487 72.0925 20.0625 71.9895 20.3326 71.8099L28.128 66.6006H42.9976V74.6197C42.9976 78.275 45.9691 81.2464 49.6243 81.2464H70.8098L78.6052 86.4682C78.8753 86.6478 79.1891 86.7508 79.5131 86.7661C79.8372 86.7814 80.1593 86.7085 80.4452 86.5552C81.0295 86.2444 81.3901 85.6476 81.3901 84.9887V81.2588H82.6209C86.2886 81.2588 89.2601 78.2874 89.2725 74.6322V53.5213C89.2476 49.8536 86.2638 46.8697 82.6085 46.8697ZM44.8252 63.0324H27.5685C27.2204 63.0324 26.8723 63.1318 26.5739 63.3308L21.1035 66.986V64.8103C21.1035 63.8281 20.3078 63.0324 19.3256 63.0324H16.3168C14.626 63.0324 13.2459 61.6523 13.2459 59.9615V38.8381C13.2459 37.1473 14.626 35.7672 16.3168 35.7672L49.3011 35.7797C50.9919 35.7797 52.372 37.1597 52.372 38.8506V59.9615C52.372 61.6523 50.9919 63.0324 49.3011 63.0324H44.8252ZM85.6794 74.6322C85.6794 76.323 84.2994 77.7031 82.5961 77.7031H79.5873C78.6052 77.7031 77.8095 78.4988 77.8095 79.481V81.6567L72.339 77.989C72.0406 77.7901 71.705 77.6906 71.3444 77.6906H49.6119C47.921 77.6906 46.541 76.3106 46.541 74.6197V66.6006H49.2886C52.9439 66.6006 55.9277 63.6291 55.9277 59.9615V50.4131H82.5961C83.4138 50.4131 84.1981 50.7379 84.7763 51.3162C85.3546 51.8944 85.6794 52.6787 85.6794 53.4964V74.6322Z" fill="#2F68DC"/>
<path d="M34.6137 56.4442L33.3927 54.6238C32.8599 54.7348 32.2605 54.8014 31.6611 54.8014C27.3765 54.8014 24.3795 51.6934 24.3795 47.4088C24.3795 43.1242 27.4653 40.0162 31.6611 40.0162C35.9679 40.0162 38.8983 43.1242 38.8983 47.4088C38.8983 49.984 37.8327 52.1374 36.0567 53.4472L38.0547 56.4442H34.6137ZM31.6167 51.9376L30.3513 50.0284H33.7701L34.4361 51.0274C35.4351 50.206 36.0123 48.9406 36.0123 47.4088C36.0123 44.7892 34.3029 42.88 31.6611 42.88C29.0193 42.88 27.2433 44.7892 27.2433 47.4088C27.2433 50.0062 28.9971 51.9154 31.6167 51.9376Z" fill="#2F68DC"/>
<path d="M58.7471 70.5376L64.6079 56.1076H66.7835L72.6221 70.5376H69.5807L68.6483 68.1622H62.7209L61.7885 70.5376H58.7471ZM63.7643 65.5426H67.6271L65.6957 60.6364L63.7643 65.5426Z" fill="#2F68DC"/>
<path fill-rule="evenodd" clip-rule="evenodd" d="M68.7546 32.492C67.1657 33.5576 65.2976 34.1264 63.3866 34.1264C60.8241 34.1264 58.3665 33.1047 56.5545 31.286C54.7425 29.4674 53.7246 27.0007 53.7246 24.4288C53.7246 22.5108 54.2912 20.6359 55.3529 19.0411C56.4146 17.4463 57.9236 16.2034 59.6891 15.4694C61.4546 14.7354 63.3973 14.5434 65.2716 14.9175C67.1459 15.2917 68.8675 16.2153 70.2187 17.5716C71.57 18.9278 72.4902 20.6557 72.863 22.5369C73.2358 24.418 73.0445 26.3679 72.3132 28.1399C71.5819 29.9119 70.3435 31.4264 68.7546 32.492ZM80.1036 48.5487C79.5652 44.991 77.909 41.6726 75.3428 39.097C72.1718 35.9144 67.8711 34.1264 63.3866 34.1264C59.7909 34.1264 56.3132 35.2759 53.4414 37.3722V40.0944L54.9333 45.5648V48.5487H64.8796H80.1036Z" fill="#2F68DC"/>
<path d="M62.051 26.8167V26.5494C62.051 25.4015 62.6171 24.7253 63.1203 24.2378C63.7965 23.5459 64.3783 23.0742 64.3783 22.3036C64.3783 21.6904 63.9537 21.1872 63.0731 21.1872C62.3026 21.1872 61.5792 21.769 61.3434 22.398L59.6136 21.5646C60.0539 20.4166 61.249 19.3316 63.0731 19.3316C65.0073 19.3316 66.4854 20.2908 66.4854 22.1307C66.4854 23.4044 65.8407 24.0491 65.2589 24.6467C64.5827 25.37 64.0795 25.8732 64.0795 26.5494V26.8167H62.051ZM63.0888 29.8516C62.4756 29.8516 62.0353 29.3956 62.0353 28.7981C62.0353 28.2005 62.4756 27.7445 63.0888 27.7445C63.7021 27.7445 64.1424 28.2005 64.1424 28.7981C64.1424 29.3956 63.7021 29.8516 63.0888 29.8516Z" fill="white"/>
</g>
<defs>
<clipPath id="clip0_2007_1120">
<rect width="79.5699" height="79.5699" fill="white" transform="translate(9.67773 10.7527)"/>
</clipPath>
</defs>
</svg>

<svg xmlns="http://www.w3.org/2000/svg" width="100" height="100" fill="none" viewBox="0 0 100 100">
  <g clip-path="url(#a)">
    <path fill="#2F68DC" d="M82.609 46.87H55.94v-8.007a6.646 6.646 0 0 0-6.639-6.64l-32.984-.011c-3.655-.013-6.64 2.97-6.64 6.626v21.123a6.646 6.646 0 0 0 6.64 6.64h1.23v3.73c0 .658.361 1.255.946 1.566a1.792 1.792 0 0 0 1.84-.087l7.795-5.21h14.87v8.02a6.633 6.633 0 0 0 6.626 6.626H70.81l7.795 5.222a1.792 1.792 0 0 0 1.84.087c.585-.31.945-.907.945-1.566v-3.73h1.23a6.654 6.654 0 0 0 6.652-6.627v-21.11c-.024-3.668-3.008-6.652-6.663-6.652ZM44.825 63.032H27.568c-.348 0-.696.1-.994.299l-5.47 3.655V64.81c0-.982-.796-1.778-1.778-1.778h-3.01c-1.69 0-3.07-1.38-3.07-3.07V38.838c0-1.69 1.38-3.07 3.07-3.07l32.985.012c1.69 0 3.071 1.38 3.071 3.07v21.111a3.077 3.077 0 0 1-3.07 3.071h-4.477Zm40.854 11.6a3.08 3.08 0 0 1-3.083 3.071h-3.009c-.982 0-1.778.796-1.778 1.778v2.176l-5.47-3.668a1.764 1.764 0 0 0-.995-.298H49.612a3.078 3.078 0 0 1-3.071-3.071V66.6h2.748a6.646 6.646 0 0 0 6.639-6.638v-9.549h26.668a3.083 3.083 0 0 1 3.083 3.083v21.136Z"/>
    <path fill="#2F68DC" d="m34.614 56.444-1.221-1.82a8.634 8.634 0 0 1-1.732.177c-4.285 0-7.282-3.108-7.282-7.392 0-4.285 3.086-7.393 7.282-7.393 4.307 0 7.237 3.108 7.237 7.393 0 2.575-1.065 4.728-2.841 6.038l1.998 2.997h-3.441Zm-2.997-4.506-1.266-1.91h3.42l.665 1c1-.822 1.576-2.087 1.576-3.62 0-2.619-1.71-4.528-4.35-4.528-2.643 0-4.419 1.91-4.419 4.529 0 2.597 1.754 4.506 4.374 4.529Zm27.13 18.6 5.86-14.43h2.177l5.838 14.43h-3.041l-.933-2.376h-5.927l-.932 2.376h-3.042Zm5.017-4.995h3.863l-1.931-4.907-1.932 4.907Z"/>
    <path fill="#2F68DC" fill-rule="evenodd" d="M68.755 32.492a9.637 9.637 0 0 1-12.2-1.206 9.723 9.723 0 0 1-1.202-12.245 9.67 9.67 0 0 1 4.336-3.572 9.63 9.63 0 0 1 10.53 2.103 9.73 9.73 0 0 1 2.094 10.568 9.69 9.69 0 0 1-3.558 4.352Zm11.349 16.057a16.994 16.994 0 0 0-4.761-9.452 16.877 16.877 0 0 0-11.956-4.97 16.87 16.87 0 0 0-9.946 3.245v2.722l1.492 5.47v2.985h25.171Z" clip-rule="evenodd"/>
    <path fill="#fff" d="M62.051 26.817v-.268c0-1.148.566-1.824 1.07-2.311.675-.692 1.257-1.164 1.257-1.934 0-.614-.424-1.117-1.305-1.117-.77 0-1.494.582-1.73 1.211l-1.73-.833c.44-1.148 1.636-2.233 3.46-2.233 1.934 0 3.412.959 3.412 2.799 0 1.273-.644 1.918-1.226 2.516-.676.723-1.18 1.226-1.18 1.902v.268h-2.028Zm1.038 3.035a1.025 1.025 0 0 1-1.054-1.054c0-.597.44-1.053 1.054-1.053.613 0 1.053.456 1.053 1.053 0 .598-.44 1.054-1.053 1.054Z"/>
  </g>
  <defs>
    <clipPath id="a">
      <path fill="#fff" d="M0 0h79.57v79.57H0z" transform="translate(9.678 10.753)"/>
    </clipPath>
  </defs>
</svg>
